!!!OTL@@FUR: Zaplula je bar&ccirc;ica moja
!!!OTL@IT: La mia barchetta navigando &egrave; giunta
!!!OTL@EN: Sailing by boat
**kern
*clefG2
*k[]
*C:
*M6/8
*MM110
*>[A,B,A,C]
*>A
8e
=1
4a
8g
4e
8e
=2
8a
8a
8g
8g
8f
8e
=3
4.g
4f
8g
=4
4b
16a
16g
4f
8g
=5||
*>B
8b
8a
8g
8a
8g
8g
=6
4a
8g
4e
=7:|!
*>C
8b
8a
8g
8a
8g
8f
=8
[4e.
4e]
8r
==
*-
!!!ARE: Friuli
!!!ENC: Kelly Leistikow
!!!END: 2002/03/07
!!!ref: @{OTL@@FUR}/@{OTL@EN}
